X: 21910
T: Kit O'Mahony
R: jig
M: 6/8
K: Gmajor
|:~BAG AGF|D.G.E FGA|BAB cAF|DGF Gdc|
~B2G AFD|GAG FGA|(3gfe d cAF|1 DGF G2A:|2 DGF G2D||
|:GBd deg|fed cAF|GBd def|gfg def|
g2e (3gfe d|edB cde|(3gfe d cAF|DGF G2D:|
|:GBd cAc|BGG GBd|gdB cAG|FGA cAF|
GBd cAc|BGG g2e|(3gfe d cAF|1 DGF G2D:|2 DGF GBd||
|:~g3 dBG|fed cAF|GBd def|g3 def|
~g3 afd|bag fed|(3gfe d cAF|1 DGF G2d:|2 DGF G3||

